src/static/logos/pivotal_tracker.svg

<?xml version="1.0" encoding="UTF-8" standalone="no"?>
<svg width="256px" height="256px" viewBox="0 0 256 256" version="1.1" xmlns="http://www.w3.org/2000/svg" xmlns:xlink="http://www.w3.org/1999/xlink" preserveAspectRatio="xMidYMid">
	<g>
		<path d="M94.0114747,58.8463838 L122.564525,108.298343 C127.097535,107.085576 132.046869,107.439838 136.546263,109.544727 L151.557172,83.5465051 L126.466586,40.1014949 L93.7166869,59.0144646 L93.7192727,59.0144646 L94.0114747,58.8463838 Z M50.9672727,122.817939 L108.086303,122.817939 C108.541414,121.11903 109.198222,119.443394 110.118788,117.853091 C111.670303,115.161212 113.751919,112.976162 116.141253,111.308283 L101.132929,85.3178182 L50.9517576,85.3178182 L50.9517576,123.141172 L50.9672727,123.141172 L50.9672727,122.817939 Z M145.63297,138.358949 C144.076283,141.050828 142.007596,143.228121 139.623434,144.893414 L154.642101,170.904566 L204.810343,170.904566 L204.810343,133.409616 L147.66804,133.409616 C147.207758,135.108525 146.545778,136.768646 145.63297,138.358949 Z M142.354101,113.614869 C145.819152,117.064404 147.880081,121.594828 148.293818,126.345051 L178.305293,126.345051 L203.395879,82.8974545 L170.925253,64.1448081 L142.354101,113.614869 Z M84.8316768,192.082747 L113.402828,142.592 C109.953293,139.137293 107.892364,134.619798 107.468283,129.885091 L77.4412929,129.885091 L52.3507071,173.312 L85.0928485,192.237899 L84.8316768,192.082747 Z M161.753212,197.368242 L133.205333,147.913697 C128.674909,149.136808 123.720404,148.792889 119.215838,146.675071 L104.199758,172.681051 L129.274828,216.115717 L162.027313,197.210505 L161.753212,197.368242 Z" fill="#ed7d1a"></path>
		<path d="M127.888808,0.232727273 C57.3724444,0.232727273 0,57.5896566 0,128.095677 C0,198.622384 57.3724444,256 127.888808,256 C198.4,256 255.759515,198.622384 255.759515,128.095677 C255.759515,57.5896566 198.4,0.232727273 127.888808,0.232727273 L127.888808,0.232727273 Z M127.888808,26.1223434 C184.208808,26.1223434 229.864727,71.7730909 229.864727,128.095677 C229.864727,184.433778 184.208808,230.107798 127.888808,230.107798 C71.5610505,230.107798 25.8973737,184.433778 25.8973737,128.095677 C25.8973737,71.7730909 71.5610505,26.1223434 127.888808,26.1223434 L127.888808,26.1223434 Z" fill="#5282b0"></path>
	</g>
</svg>

<svg width="256" height="256" xmlns="http://www.w3.org/2000/svg" preserveAspectRatio="xMidYMid"><path d="M94.011 58.846l28.554 49.452a20.474 20.474 0 0113.981 1.247l15.011-25.998-25.09-43.446-32.75 18.913h.002l.292-.168zm-43.044 63.972h57.12a20.416 20.416 0 012.032-4.965 20.37 20.37 0 016.022-6.545l-15.008-25.99H50.952v37.823h.015v-.323zm94.666 15.54a20.386 20.386 0 01-6.01 6.535l15.02 26.012h50.167V133.41h-57.142a20.844 20.844 0 01-2.035 4.949zm-3.279-24.743a20.463 20.463 0 015.94 12.73h30.011l25.09-43.448-32.47-18.752-28.57 49.47zm-57.522 78.468l28.57-49.491a20.586 20.586 0 01-5.934-12.707H77.441l-25.09 43.427 32.742 18.926-.261-.155zm76.921 5.285l-28.548-49.454a20.363 20.363 0 01-13.99-1.239L104.2 172.681l25.075 43.435 32.752-18.905-.274.157z" fill="#ed7d1a"/><path d="M127.889.233C57.372.233 0 57.59 0 128.096 0 198.622 57.372 256 127.889 256c70.511 0 127.87-57.378 127.87-127.904C255.76 57.59 198.4.233 127.89.233zm0 25.89c56.32 0 101.976 45.65 101.976 101.973 0 56.338-45.656 102.012-101.976 102.012-56.328 0-101.992-45.674-101.992-102.012 0-56.323 45.664-101.974 101.992-101.974z" fill="#5282b0"/></svg>
